images/firepit.svg

<?xml version="1.0" encoding="UTF-8" standalone="no"?>
<svg xmlns:dc="http://purl.org/dc/elements/1.1/" xmlns:cc="http://creativecommons.org/ns#" xmlns:rdf="http://www.w3.org/1999/02/22-rdf-syntax-ns#" xmlns:svg="http://www.w3.org/2000/svg" xmlns="http://www.w3.org/2000/svg" xmlns:sodipodi="http://sodipodi.sourceforge.net/DTD/sodipodi-0.dtd" xmlns:inkscape="http://www.inkscape.org/namespaces/inkscape" version="1.1" id="svg109" width="14" height="14" viewBox="0 0 14 14" sodipodi:docname="firepit.svg" inkscape:version="0.92.4 (5da689c313, 2019-01-14)">
  <sodipodi:namedview pagecolor="#ffffff" bordercolor="#666666" borderopacity="1" objecttolerance="10" gridtolerance="10" guidetolerance="10" inkscape:pageopacity="0" inkscape:pageshadow="2" inkscape:window-width="1881" inkscape:window-height="1051" id="namedview844" showgrid="false" inkscape:pagecheckerboard="true" inkscape:zoom="21.667772" inkscape:cx="1.8613219" inkscape:cy="5.1595819" inkscape:window-x="0" inkscape:window-y="0" inkscape:window-maximized="1" inkscape:current-layer="svg109" />
  <metadata id="metadata115">
    <rdf:RDF>
      <cc:Work rdf:about="">
        <dc:format>image/svg+xml</dc:format>
        <dc:type rdf:resource="http://purl.org/dc/dcmitype/StillImage" />
        <dc:title></dc:title>
      </cc:Work>
    </rdf:RDF>
  </metadata>
  <defs id="defs113" />
  <path d="M 5.8613281,-0.01171875 C 7.4948435,3.3410494 -1.0755672,5.5380484 6.3769531,10.130859 L 6.6992188,10.013672 C 4.8436378,7.328355 12.374438,4.1804808 5.8613281,-0.01171875 Z M 9.25,3.4238281 C 10.300411,6.5115557 6.7139152,7.3962701 7.8398438,9.5976562 L 9.5292969,8.984375 C 10.207099,7.3309044 11.943051,5.9976828 9.25,3.4238281 Z M 1.4746094,8.9980469 A 0.50005,0.50005 0 0 0 1.3300781,9.9707031 L 5.5449219,11.503906 L 1.3320312,13.035156 A 0.49426052,0.49426052 0 0 0 1.6679688,13.964844 L 6.9902344,12.029297 L 12.330078,13.970703 A 0.50043461,0.50043461 0 0 0 12.669922,13.029297 L 8.4550781,11.496094 L 12.667969,9.9648438 A 0.49422068,0.49422068 0 0 0 12.509766,9.0039062 A 0.49422068,0.49422068 0 0 0 12.332031,9.0351562 L 7.0097656,10.970703 L 1.6699219,9.0292969 A 0.50005,0.50005 0 0 0 1.4746094,8.9980469 Z" id="outline" style="opacity:0.5;fill:none;stroke:#fcfcfc;stroke-width:3;stroke-linecap:round;stroke-linejoin:round;stroke-miterlimit:4;stroke-dasharray:none;stroke-opacity:1" inkscape:connector-curvature="0" />
  <path id="path4157-6" d="M 5.8613281 -0.01171875 C 7.4948435 3.3410494 -1.0755672 5.5380484 6.3769531 10.130859 L 6.6992188 10.013672 C 4.8436378 7.328355 12.374438 4.1804808 5.8613281 -0.01171875 z M 9.25 3.4238281 C 10.300411 6.5115557 6.7139152 7.3962701 7.8398438 9.5976562 L 9.5292969 8.984375 C 10.207099 7.3309044 11.943051 5.9976828 9.25 3.4238281 z M 1.4746094 8.9980469 A 0.50005 0.50005 0 0 0 1.3300781 9.9707031 L 5.5449219 11.503906 L 1.3320312 13.035156 A 0.49426052 0.49426052 0 0 0 1.6679688 13.964844 L 6.9902344 12.029297 L 12.330078 13.970703 A 0.50043461 0.50043461 0 0 0 12.669922 13.029297 L 8.4550781 11.496094 L 12.667969 9.9648438 A 0.49422068 0.49422068 0 0 0 12.509766 9.0039062 A 0.49422068 0.49422068 0 0 0 12.332031 9.0351562 L 7.0097656 10.970703 L 1.6699219 9.0292969 A 0.50005 0.50005 0 0 0 1.4746094 8.9980469 z " />
</svg>

<svg xmlns="http://www.w3.org/2000/svg" width="14" height="14">
    <path d="M5.861-.012c1.634 3.353-6.937 5.55.516 10.143l.322-.117C4.844 7.328 12.374 4.18 5.861-.012zM9.25 3.424c1.05 3.088-2.536 3.972-1.41 6.174l1.69-.614c.677-1.653 2.413-2.986-.28-5.56zM1.475 8.998a.5.5 0 00-.145.973l4.215 1.533-4.213 1.531a.494.494 0 00.336.93l5.322-1.936 5.34 1.942a.5.5 0 00.34-.942l-4.215-1.533 4.213-1.531a.494.494 0 00-.158-.961.494.494 0 00-.178.031L7.01 10.971 1.67 9.029a.5.5 0 00-.195-.031z" opacity=".5" fill="none" stroke="#fcfcfc" stroke-width="3" stroke-linecap="round" stroke-linejoin="round"/>
    <path d="M5.861-.012c1.634 3.353-6.937 5.55.516 10.143l.322-.117C4.844 7.328 12.374 4.18 5.861-.012zM9.25 3.424c1.05 3.088-2.536 3.972-1.41 6.174l1.69-.614c.677-1.653 2.413-2.986-.28-5.56zM1.475 8.998a.5.5 0 00-.145.973l4.215 1.533-4.213 1.531a.494.494 0 00.336.93l5.322-1.936 5.34 1.942a.5.5 0 00.34-.942l-4.215-1.533 4.213-1.531a.494.494 0 00-.158-.961.494.494 0 00-.178.031L7.01 10.971 1.67 9.029a.5.5 0 00-.195-.031z"/>
</svg>
